packages/core/src/svgs/tokens/branded/K21.svg

<svg width="24" height="24" viewBox="0 0 24 24" fill="none" xmlns="http://www.w3.org/2000/svg">
<path d="M2.12695 10.5483H13.3754V10.2787H2.18481C2.16436 10.3682 2.14506 10.4581 2.12695 10.5483Z" fill="#2B2A29"/>
<path d="M2.41992 9.42109H15.7829V8.90042H2.60212C2.53683 9.07225 2.47607 9.24587 2.41992 9.42109Z" fill="#2B2A29"/>
<path d="M2.89307 8.20823H15.7881V7.68143H3.15637C3.06363 7.85457 2.97582 8.03025 2.89307 8.20823Z" fill="#2B2A29"/>
<path d="M3.77881 6.66457H19.2309V6.14391H4.16439C4.03027 6.31371 3.90169 6.48737 3.77881 6.66457Z" fill="#2B2A29"/>
<path d="M4.76221 5.4517H9.41143V4.9249H5.2965C5.21817 4.99675 5.14085 5.0699 5.06454 5.14432C4.96145 5.24489 4.86066 5.34737 4.76221 5.4517Z" fill="#2B2A29"/>
<path d="M5.48242 4.75951H13.719V4.41647H5.89574C5.75532 4.52702 5.61749 4.64139 5.48242 4.75951Z" fill="#2B2A29"/>
<path d="M4.95306 4.41647C4.88667 4.47633 4.82092 4.53706 4.75586 4.59865V4.41647H4.95306Z" fill="#2B2A29"/>
<path d="M7.5127 3.36964V3.38739H10.9614V2.69519H9.11718C8.56461 2.87481 8.02788 3.1004 7.5127 3.36964Z" fill="#2B2A29"/>
<path d="M15.5559 2.69519H11.6543V3.38739H17.1674V3.37327C16.65 3.10243 16.111 2.87561 15.5559 2.69519Z" fill="#2B2A29"/>
<path d="M22.0001 16.4779H2.67188C2.70899 16.5704 2.74741 16.6623 2.78713 16.7535H9.58284V17.17H18.5446V16.7535H21.8848C21.9245 16.6623 21.963 16.5704 22.0001 16.4779Z" fill="#2B2A29"/>
<path d="M6.62215 21.3048H11.6532V20.6126H5.68604C5.98508 20.8607 6.29762 21.0918 6.62215 21.3048Z" fill="#2B2A29"/>
<path d="M4.54665 19.51H9.58303V19.9265H15.7884V19.2343H4.31055C4.3876 19.3275 4.46631 19.4194 4.54665 19.51Z" fill="#2B2A29"/>
<path d="M3.51397 18.1317H10.9183V17.856H3.38379V17.9185C3.42633 17.9901 3.46973 18.0611 3.51397 18.1317Z" fill="#2B2A29"/>
<path d="M2.0826 14.4135H14.4046V13.7213H2.00635V13.9117C2.02769 14.0795 2.05311 14.2469 2.0826 14.4135Z" fill="#2B2A29"/>
<path d="M4.42571 4.9249C4.42149 4.92923 4.41729 4.93357 4.41309 4.93792V4.9249H4.42571Z" fill="#2B2A29"/>
<path d="M14.9369 5.00452V5.45169H10.269V5.00452H14.9369Z" fill="#2B2A29"/>
<path d="M2.00635 11.657H13.0325V11.9265H2.00635V11.657Z" fill="#2B2A29"/>
<path d="M15.0966 12.343V13.0353H2V12.343H15.0966Z" fill="#2B2A29"/>
<path d="M2.34863 15.0996H9.58294V15.3752H2.34863V15.0996Z" fill="#2B2A29"/>
<path d="M10.2749 15.0996H14.4098V15.7918H10.2749V15.0996Z" fill="#2B2A29"/>
<path d="M17.8533 17.856V18.5482H11.6479V17.856H17.8533Z" fill="#2B2A29"/>
</svg>

<svg xmlns="http://www.w3.org/2000/svg" width="24" height="24" fill="none" viewBox="0 0 24 24">
    <path fill="#2B2A29" d="M2.127 10.548h11.248v-.27H2.185zm.293-1.127h13.363v-.52H2.603q-.099.257-.183.52m.473-1.213h12.895v-.527H3.156q-.138.261-.263.527m.886-1.543H19.23v-.521H4.164q-.2.255-.385.52m.983-1.212h4.65v-.527H5.295a10 10 0 0 0-.534.527m.721-.692h8.237v-.344H5.896q-.21.166-.414.344m-.529-.344q-.1.09-.197.183v-.183zm2.56-1.046v.017h3.448v-.692H9.117c-.552.18-1.09.405-1.604.675m8.043-.675h-3.902v.692h5.513v-.014a10.4 10.4 0 0 0-1.611-.678M22 16.478H2.672q.055.138.115.275h6.796v.417h8.962v-.417h3.34q.06-.136.115-.275M6.622 21.305h5.031v-.692H5.686q.45.372.936.692M4.547 19.51h5.036v.416h6.205v-.692H4.311q.115.14.236.276m-1.033-1.378h7.404v-.276H3.384v.063q.063.106.13.213m-1.431-3.718h12.322v-.693H2.006v.19q.032.252.077.503m2.343-9.489-.013.013v-.013zm10.511.08v.447h-4.668v-.447zM2.006 11.657h11.027v.27H2.006zm13.091.686v.692H2v-.692zM2.349 15.1h7.234v.275H2.349zm7.926 0h4.135v.692h-4.135zm7.578 2.756v.692h-6.205v-.692z"/>
</svg>
